X: 29625
T: North Star, The
R: jig
M: 6/8
K: Gmajor
G2 D GB/c/d|cBG dBG|DEd dBG|F2 d cde|
G2 D GB/c/d|cBG dBG|EGd F2 d|1 G3 dBA:|2 G3 z2 B||
G2 F GDD|ABF G2 D|EFG ADc|cBG AEB|
G2 F GDD|ABF G2 D|EFG ADF|GDB DAD|
G2 F GDD|ABF G2 D|EFG Adc-|cBG AEB|
G2 F G2 d|dcB G2 D|EFG ABF|G2 z dBA|

